X:80
T:the Italian Momfrina
B:Preston's Twenty four COUNTRY DANCES for the Year 1801
L:1/8
M:6/8
O:England
Z:Richard Robinson 
%%Dancenotes:Hands 3 round first with 2d. Lady, then 2d. Gent. down the middle up again.
%%Page:8
%%TUNEURL: http://www.leeds.ac.uk/music/Info/RRTuneBk/gettune/00001179.html
%%ID:00001179
K:A
E | \
ABc cdB | BAA A2e | (eG)G GAB | BAA A2 :: \
a | \
agb b2e | dce e2a | ! agb b2g | dce e2a | \
aga aga | fga agf |   efe dcB | BAA A2 |]
%%newpage
%%Page:9
